icons/Yaru-remix-dark/scalable/devices/media-zip-symbolic.svg

<?xml version='1.0' encoding='UTF-8' standalone='no'?>
<svg xmlns:cc='http://creativecommons.org/ns#' xmlns:dc='http://purl.org/dc/elements/1.1/' height='16' id='svg7384' xmlns:osb='http://www.openswatchbook.org/uri/2009/osb' xmlns:rdf='http://www.w3.org/1999/02/22-rdf-syntax-ns#' xmlns:svg='http://www.w3.org/2000/svg' version='1.1' width='15.999999' xmlns='http://www.w3.org/2000/svg'>
  <metadata id='metadata20854'>
    <rdf:RDF>
      <cc:Work rdf:about=''>
        <dc:title/>
        <dc:format>image/svg+xml</dc:format>
        <dc:type rdf:resource='http://purl.org/dc/dcmitype/StillImage'/>
      </cc:Work>
    </rdf:RDF>
  </metadata>
  <defs id='defs7386'>
    <linearGradient id='linearGradient5606' osb:paint='solid'>
      <stop id='stop5608' offset='0' style='stop-color:#000000;stop-opacity:1;'/>
    </linearGradient>
    <linearGradient id='linearGradient4526' osb:paint='solid'>
      <stop id='stop4528' offset='0' style='stop-color:#ffffff;stop-opacity:1;'/>
    </linearGradient>
    <linearGradient id='linearGradient3600-4' osb:paint='gradient'>
      <stop id='stop3602-7' offset='0' style='stop-color:#f4f4f4;stop-opacity:1'/>
      <stop id='stop3604-6' offset='1' style='stop-color:#dbdbdb;stop-opacity:1'/>
    </linearGradient>
  </defs>
  <g id='layer9' label='status' style='display:inline' transform='translate(-813.00017,287.00006)'/>
  <g id='layer2' style='display:inline' transform='translate(-571.99997,-79.999939)'/>
  <g id='layer4' style='display:inline' transform='translate(-571.99997,-79.999939)'/>
  <g id='g1812' style='display:inline' transform='translate(-571.99997,-79.999939)'/>
  <g id='g6217' style='display:inline' transform='translate(-571.99997,-79.999939)'>
    <path d='m 576.99414,81 c -1.2582,0.01454 -2.17889,-0.03056 -2.93164,0.384766 -0.37637,0.207661 -0.67323,0.559382 -0.83789,0.998046 C 573.05994,82.821477 573,83.342391 573,84 v 11 h 0.5 13.5 V 84 c 0,-0.657609 -0.0599,-1.178521 -0.22461,-1.617188 -0.16466,-0.438666 -0.46152,-0.79038 -0.83789,-0.998046 C 585.18475,80.969434 584.26406,81.014519 583.00586,81 h -0.004 -6.0039 z M 577,82 h 6 c 1.25852,0.01469 2.08717,0.0598 2.45312,0.261719 0.18341,0.101196 0.28916,0.212745 0.38672,0.472656 C 585.93741,82.994286 586,83.407609 586,84 V 94 H 574 V 84 c 0,-0.592391 0.0626,-1.005719 0.16016,-1.265625 0.0976,-0.259906 0.20135,-0.371462 0.38476,-0.472656 C 574.91088,82.059806 575.74147,82.014712 577,82 Z' id='path8636' style='color:#000000;font-style:normal;font-variant:normal;font-weight:normal;font-stretch:normal;font-size:medium;line-height:normal;font-family:sans-serif;font-variant-ligatures:normal;font-variant-position:normal;font-variant-caps:normal;font-variant-numeric:normal;font-variant-alternates:normal;font-feature-settings:normal;text-indent:0;text-align:start;text-decoration:none;text-decoration-line:none;text-decoration-style:solid;text-decoration-color:#000000;letter-spacing:normal;word-spacing:normal;text-transform:none;writing-mode:lr-tb;direction:ltr;text-orientation:mixed;dominant-baseline:auto;baseline-shift:baseline;text-anchor:start;white-space:normal;shape-padding:0;clip-rule:nonzero;display:inline;overflow:visible;visibility:visible;opacity:1;isolation:auto;mix-blend-mode:normal;color-interpolation:sRGB;color-interpolation-filters:linearRGB;solid-color:#000000;solid-opacity:1;vector-effect:none;fill:#808080;fill-opacity:1;fill-rule:nonzero;stroke:none;stroke-width:1.00000012;stroke-linecap:butt;stroke-linejoin:miter;stroke-miterlimit:4;stroke-dasharray:none;stroke-dashoffset:0;stroke-opacity:1;marker:none;color-rendering:auto;image-rendering:auto;shape-rendering:auto;text-rendering:auto;enable-background:accumulate'/>
    
    <rect height='4' id='rect8647' style='opacity:1;fill:#808080;fill-opacity:1;stroke:none;stroke-width:1;stroke-linecap:square;stroke-linejoin:round;stroke-miterlimit:4;stroke-dasharray:none;stroke-dashoffset:0;stroke-opacity:1' width='8' x='576' y='82'/>
  </g>
  <g id='layer3' style='display:inline' transform='translate(-571.99997,-79.999939)'/>
  <g id='g1833' style='display:inline' transform='translate(-571.99997,-79.999939)'/>
  <g id='layer1' style='display:inline' transform='translate(-571.99997,-79.999939)'/>
</svg>

<svg height='16' width='16' xmlns='http://www.w3.org/2000/svg'>
    <g transform='translate(-572 -80)'>
        <path color='#000' d='M576.994 81c-1.258.015-2.179-.03-2.932.385a1.88 1.88 0 00-.837.998c-.165.438-.225.96-.225 1.617v11h14V84c0-.658-.06-1.179-.225-1.617a1.88 1.88 0 00-.837-.998c-.753-.416-1.674-.37-2.932-.385H576.998zm.006 1h6c1.259.015 2.087.06 2.453.262.184.1.29.212.387.472.097.26.16.674.16 1.266v10h-12V84c0-.592.063-1.006.16-1.266.098-.26.202-.371.385-.472.366-.202 1.196-.247 2.455-.262z' fill='gray' font-family='sans-serif' font-weight='400' overflow='visible' style='line-height:normal;font-variant-ligatures:normal;font-variant-position:normal;font-variant-caps:normal;font-variant-numeric:normal;font-variant-alternates:normal;font-feature-settings:normal;text-indent:0;text-align:start;text-decoration-line:none;text-decoration-style:solid;text-decoration-color:#000;text-transform:none;text-orientation:mixed;white-space:normal;shape-padding:0;isolation:auto;mix-blend-mode:normal;solid-color:#000;solid-opacity:1;marker:none'/>
        
        <rect fill='gray' height='4' width='8' x='576' y='82'/>
    </g>
</svg>
